public/img/home/solutions/icon-solutions-06.svg

<svg fill="none" height="87" viewBox="0 0 109 87" width="109" xmlns="http://www.w3.org/2000/svg"><path d="m94.5562 76.7115h-3.0177v-4.5897c0-.9961-.8127-1.8059-1.8104-1.8059h-4.6811v-30.5473h4.6811c.9714 0 1.7623-.789 1.7623-1.7579v-3.6189c0-.969-.7909-1.7579-1.7623-1.7579h-18.5459c-.1768-9.0392-7.4838-16.3666-16.5304-16.6037v-5.4076h8.7808l-1.0503-3.31128 1.0503-3.31132h-9.6879v12.0293c-9.0466.238-16.3535 7.5654-16.5304 16.6037h-18.5468c-.9714 0-1.7623.7889-1.7623 1.7578v3.619c0 .9689.7909 1.7579 1.7623 1.7579h4.7746v30.5473h-4.7746c-.9986 0-1.8104.8107-1.8104 1.8059v4.5897h-3.0177c-1.014 0-1.8394.8233-1.8394 1.8348v3.6189c0 1.0115.8254 1.8348 1.8394 1.8348h80.7177c1.014 0 1.8394-.8233 1.8394-1.8348v-3.6189c0-1.0115-.8254-1.8348-1.8394-1.8348zm-39.9044-71.80677h7.5419l-.7638 2.40659.7638 2.40658h-7.5419zm24.046 65.39767v-30.5257h5.5147v30.5257zm-.8344.0126h-10.9569v-30.5473h10.9569zm-35.4464-30.5374h5.5146v30.5257h-5.5146zm6.3491-.0099h10.9568v30.5473h-10.9568zm17.306 30.5347h-5.5147v-30.5257h5.5147zm-11.8738-53.3747c8.7545 0 15.8973 7.0144 16.0769 15.7053h-32.1539c.1796-8.6909 7.3224-15.7053 16.077-15.7053zm-35.5308 22.0384c-.5288 0-.9587-.4289-.9587-.9563v-3.619c0-.5274.4299-.9563.9587-.9563h71.0606c.5288 0 .9587.4289.9587.9563v3.619c0 .5274-.4299.9563-.9587.9563h-4.6811v-.0217h-7.1836v.0217h-10.9569v-.0217h-7.1836v.0217h-10.9568v-.0217h-7.1836v.0217h-10.9568v-.0217h-7.1836v.0217zm11.1237.8115v30.5257h-5.5147v-30.5257zm.8345-.0099h10.9568v30.5473h-10.9568zm-12.8679 32.3541c0-.5003.4081-.9084.9106-.9084h71.0606c.5016 0 .9107.4072.9107.9084v4.5273h-72.8819zm77.6809 10.0434c0 .4849-.3955.8794-.8816.8794h-80.7177c-.4861 0-.8816-.3945-.8816-.8794v-3.6189c0-.485.3955-.8794.8816-.8794h80.7177c.4861 0 .8816.3944.8816.8794z" fill="#fff"/></svg>

<svg width="109" height="87" viewBox="0 0 109 87" fill="none" xmlns="http://www.w3.org/2000/svg">
<path d="M94.5562 76.7115H91.5385V72.1218C91.5385 71.1257 90.7258 70.3159 89.7281 70.3159H85.047V39.7686H89.7281C90.6995 39.7686 91.4904 38.9796 91.4904 38.0107V34.3918C91.4904 33.4228 90.6995 32.6339 89.7281 32.6339H71.1822C71.0054 23.5947 63.6984 16.2673 54.6518 16.0302V10.6226H63.4326L62.3823 7.31132L63.4326 4H53.7447V16.0293C44.6981 16.2673 37.3912 23.5947 37.2143 32.633H18.6675C17.6961 32.633 16.9052 33.4219 16.9052 34.3908V38.0098C16.9052 38.9787 17.6961 39.7677 18.6675 39.7677H23.4421V70.315H18.6675C17.6689 70.315 16.8571 71.1257 16.8571 72.1209V76.7106H13.8394C12.8254 76.7106 12 77.5339 12 78.5454V82.1643C12 83.1758 12.8254 83.9991 13.8394 83.9991H94.5571C95.5711 83.9991 96.3965 83.1758 96.3965 82.1643V78.5454C96.3965 77.5339 95.5711 76.7106 94.5571 76.7106L94.5562 76.7115ZM54.6518 4.90473H62.1937L61.4299 7.31132L62.1937 9.7179H54.6518V4.90473ZM78.6978 70.3024V39.7767H84.2125V70.3024H78.6978ZM77.8634 70.315H66.9065V39.7677H77.8634V70.315ZM42.417 39.7776H47.9316V70.3033H42.417V39.7776ZM48.7661 39.7677H59.7229V70.315H48.7661V39.7677ZM66.0721 70.3024H60.5574V39.7767H66.0721V70.3024ZM54.1983 16.9277C62.9528 16.9277 70.0956 23.9421 70.2752 32.633H38.1213C38.3009 23.9421 45.4437 16.9277 54.1983 16.9277ZM18.6675 38.9661C18.1387 38.9661 17.7088 38.5372 17.7088 38.0098V34.3908C17.7088 33.8634 18.1387 33.4345 18.6675 33.4345H89.7281C90.2569 33.4345 90.6868 33.8634 90.6868 34.3908V38.0098C90.6868 38.5372 90.2569 38.9661 89.7281 38.9661H85.047V38.9444H77.8634V38.9661H66.9065V38.9444H59.7229V38.9661H48.7661V38.9444H41.5825V38.9661H30.6257V38.9444H23.4421V38.9661H18.6675ZM29.7912 39.7776V70.3033H24.2765V39.7776H29.7912ZM30.6257 39.7677H41.5825V70.315H30.6257V39.7677ZM17.7578 72.1218C17.7578 71.6215 18.1659 71.2134 18.6684 71.2134H89.729C90.2306 71.2134 90.6397 71.6206 90.6397 72.1218V76.6491H17.7578V72.1218ZM95.4387 82.1652C95.4387 82.6501 95.0432 83.0446 94.5571 83.0446H13.8394C13.3533 83.0446 12.9578 82.6501 12.9578 82.1652V78.5463C12.9578 78.0613 13.3533 77.6669 13.8394 77.6669H94.5571C95.0432 77.6669 95.4387 78.0613 95.4387 78.5463V82.1652Z" fill="white"/>
</svg>
